X:1
T:[ID 2-66]
T:[ID 2-66]
T:Bezeichnung standardisiert: Menuet [mit Trio] Menuet [mit Trio]
T:Urheber unbekannt Erstbeleg: 1767 (Datum in der schriftlichen Quelle) Datum in der hier transkribierten schriftlichen Quelle: 1773
C:Urheber unbekannt
C:Erstbeleg: 1767 (Datum in der schriftlichen Quelle)
C:Datum in der hier transkribierten schriftlichen Quelle: 1773
L:1/8
M:3/4
K:G
V:1 treble 
V:1
 G4 BG | dBgdBG | D4 FD | AFcAFD | G4 BG | dBgdBd | c2 c2 B2 |{B} A6 :: d4 gd | (bd)(dc)(cB) | %10
 c4 fd | (ac)(cB)(BA) | B3 ded | g3 ded | c2 B2 A2 | G6 :|[M:3/4]"^Trio" !fermata!d4 (3edc | %17
 B4 (3cBA | G4 (3AGF | G4 z2 | AB c2 B2 | BA A4 | Bc d2 c2 | B4 :: e4 (3=fed | e4 z2 | d4 (3edc | %27
 d4 z2 | c4 B2 | A4 G2 | FAAccB | BA A4 | d4 (3efg | d4 c2 | BABGAF | G6 :| %36

